X: 0803
T: REPUBLICAN SPIRIT
B: Oliver Ditson "The Boston Collection of Instrumental Music" 1910 p.80 #3
F: http://conquest.imslp.info/files/imglnks/usimg/8/8f/IMSLP175643-PMLP309456-bostoncollection00bost_bw.pdf
%: 2012 John Chambers <jc:trillian.mit.edu>
N: The MS has 4/4, but with 8 1/16-notes per bar.
M: 2/4
L: 1/16
K: D
dcde |\
fafd cABc | dAFA DFAF | EGBG AFDF | E2E2 DF Ad |\
fafd cABc | dAFA DFAF | EGBG Acec | d4 :|
|:\
Acef | gfge Adfg | a^gag d3A | Bcde f3g | fed2 Acde |\
fdAF EGBe | gfge dcBA | BAGF GBEc | [d4F4] :|

%%sep 1 1 500
%%sep 1 1 500
